svg/color/bit.svg

<svg width="64" height="65" viewBox="0 0 64 65" fill="none" xmlns="http://www.w3.org/2000/svg">
<rect y="0.303711" width="64" height="64" rx="32" fill="#ADFF00"/>
<rect x="0.5" y="0.803711" width="63" height="63" rx="31.5" stroke="#070B14" stroke-opacity="0.15"/>
<path fill-rule="evenodd" clip-rule="evenodd" d="M52.0704 30.0765V25.6221H47.616V16.6877H43.1616V25.6221H34.2528V47.9197H38.7072V30.0765H43.1616V47.9197H52.0704V43.4653H47.616V30.0765H52.0704ZM27.5456 41.2381C27.5456 42.4669 26.5472 43.4653 25.3184 43.4653H16.4096V34.5309H25.3184C26.5472 34.5309 27.5456 35.5293 27.5456 36.7581V41.2125V41.2381ZM16.4096 21.1421H23.0912C24.32 21.1421 25.3184 22.1405 25.3184 23.3693V27.8237C25.3184 29.0525 24.32 30.0509 23.0912 30.0509H16.4096V21.1165V21.1421ZM28.3136 31.7661V31.1517C29.2352 30.3325 29.7984 29.1549 29.7984 27.8237V22.4221C29.7984 19.2477 27.2128 16.6621 24.0384 16.6621H11.9552V47.8941H26.0864C29.3632 47.8941 32.0256 45.2317 32.0256 41.9549V36.7581C32.0256 34.4541 30.5152 32.4317 28.3136 31.7661Z" fill="black"/>
<rect x="34.2573" y="16.6621" width="4.4" height="4.4" fill="black"/>
</svg>

<svg xmlns="http://www.w3.org/2000/svg" width="64" height="65" fill="none" viewBox="0 0 64 65"><rect width="64" height="64" y=".304" fill="#ADFF00" rx="32"/><rect width="63" height="63" x=".5" y=".804" stroke="#070B14" stroke-opacity=".15" rx="31.5"/><path fill="#000" fill-rule="evenodd" d="M52.07 30.077v-4.455h-4.454v-8.934h-4.454v8.934h-8.91V47.92h4.455V30.076h4.455V47.92h8.908v-4.455h-4.454V30.076zM27.546 41.238a2.23 2.23 0 0 1-2.228 2.227H16.41v-8.934h8.908c1.23 0 2.228.998 2.228 2.227zM16.41 21.142h6.681c1.229 0 2.227.999 2.227 2.227v4.455a2.23 2.23 0 0 1-2.227 2.227H16.41v-8.934zm11.904 10.624v-.614a4.4 4.4 0 0 0 1.484-3.328v-5.402a5.77 5.77 0 0 0-5.76-5.76H11.955v31.232h14.131a5.943 5.943 0 0 0 5.94-5.94v-5.196a5.215 5.215 0 0 0-3.712-4.992" clip-rule="evenodd"/><path fill="#000" d="M34.257 16.662h4.4v4.4h-4.4z"/></svg>
